X:185
T:Spoil The Dance
R:reel
D:Matt Molloy: Heathery Breeze
Z:id:hn-reel-185
M:C|
K:Ador
~A3G B2BA|GBdB AGEG|A2AG ~B3A|1 GBdB A2GE:|2 GBdB A3f||
ge~e2 gede|ge~e2 a2ba|ge~e2 gedB|GABG A3f|
ge~e2 gede|ge~e2 a2ga|(3bag af gedg|egdB AGEG||

